public/img/notion-avatar.svg

<svg viewBox="0 0 1080 1080" fill="none" xmlns="http://www.w3.org/2000/svg">      <defs>  <filter id="filter" x="-20%" y="-20%" width="140%" height="140%" filterUnits="objectBoundingBox" primitiveUnits="userSpaceOnUse" color-interpolation-filters="linearRGB">    <feMorphology operator="dilate" radius="20 20" in="SourceAlpha" result="morphology"/>    <feFlood flood-color="#ffffff" flood-opacity="1" result="flood"/>    <feComposite in="flood" in2="morphology" operator="in" result="composite"/>    <feMerge result="merge">          <feMergeNode in="composite" result="mergeNode"/>      <feMergeNode in="SourceGraphic" result="mergeNode1"/>      </feMerge>  </filter></defs>      <g id="notion-avatar" filter="url(#filter)">        <g id="notion-avatar-face" fill="#ffffff" transform="scale(-1,1) translate(-1080, 0)">      <!--?xml version="1.0" encoding="UTF-8"?-->    <title>Face/ 6</title>    <g id="Face/-6" stroke="none" stroke-width="1" fill-rule="evenodd" stroke-linecap="round" stroke-linejoin="round">        <path d="M532,379 C664.54834,379 772,486.45166 772,619 C772,751.54834 764.54834,899 532,899 C402.610491,899 332.317998,816.086314 305.249034,718.717925 C264.225797,715.291578 232,680.909158 232,639 C232,599.134956 261.158843,566.080325 299.312086,560.00055 C325.599297,455.979213 419.809919,379 532,379 Z M295.858895,624.545187 L304.141105,655.454813" id="Path" stroke="#000000" stroke-width="24"/>    </g>    </g><g id="notion-avatar-nose" transform="scale(-1,1) translate(-1080, 0)">      <!--?xml version="1.0" encoding="UTF-8"?-->    <title>Nose/ 10</title>    <g id="Nose/-10" stroke="none" stroke-width="1" fill="none" fill-rule="evenodd" stroke-linecap="round" stroke-linejoin="round">        <path d="M631,694.380659 C660.333333,687.46022 678,677.333333 684,664 C693,644 637.033407,606.392531 660.161467,579" id="Path" stroke="#000000" stroke-width="16"/>    </g>    </g><g id="notion-avatar-mouth" transform="scale(-1,1) translate(-1080, 0)">      <!--?xml version="1.0" encoding="UTF-8"?-->    <title>Mouth/ 2</title>    <g id="Mouth/-2" stroke="none" stroke-width="1" fill="none" fill-rule="evenodd" stroke-linecap="round" stroke-linejoin="round">        <path d="M572,769 C585.775809,774.333333 599.109142,777 612,777 C624.890858,777 638.224191,774.333333 652,769" id="Path" stroke="#000000" stroke-width="16"/>    </g>    </g><g id="notion-avatar-eyes" transform="scale(-1,1) translate(-1080, 0)">      <!--?xml version="1.0" encoding="UTF-8"?-->    <title>Eyes/ 8</title>    <g id="Eyes/-8" stroke="none" stroke-width="1" fill="none" fill-rule="evenodd">        <path d="M570,516 C578.836556,516 586,526.745166 586,540 C586,553.254834 578.836556,564 570,564 C561.163444,564 554,553.254834 554,540 C554,526.745166 561.163444,516 570,516 Z M708,516 C716.836556,516 724,526.745166 724,540 C724,553.254834 716.836556,564 708,564 C699.163444,564 692,553.254834 692,540 C692,526.745166 699.163444,516 708,516 Z" id="Combined-Shape" fill="#000000"/>    </g>    </g><g id="notion-avatar-eyebrows" transform="scale(-1,1) translate(-1080, 0)">      <!--?xml version="1.0" encoding="UTF-8"?-->    <title>Eyebrows/ 8</title>    <g id="Eyebrows/-8" stroke="none" stroke-width="1" fill="none" fill-rule="evenodd" stroke-linecap="round" stroke-linejoin="round">        <g id="Group" transform="translate(530.000000, 490.000000)" stroke="#000000" stroke-width="16">            <path d="M64,10 C59.1947065,3.33333333 51.1947065,0 40,0 C28.8052935,0 15.4719602,3.33333333 0,10" id="Path"/>            <path d="M218,10 C213.194706,3.33333333 205.194706,0 194,0 C182.805294,0 169.47196,3.33333333 154,10" id="Path" transform="translate(186.000000, 5.000000) scale(-1, 1) translate(-186.000000, -5.000000) "/>        </g>    </g>    </g><g id="notion-avatar-glasses" transform="scale(-1,1) translate(-1080, 0)">      <!--?xml version="1.0" encoding="UTF-8"?-->    <title>Glasses/ 7</title>    <g id="Glasses/-7" stroke="none" stroke-width="1" fill="none" fill-rule="evenodd" stroke-linecap="round" stroke-linejoin="round">        <g id="Group" transform="translate(289.000000, 502.000000)" fill="#000000" stroke="#000000" stroke-width="4">            <path d="M339.740368,39.6303745 C323.440763,83.0959855 305.148598,104 266.642657,104 C226.661085,104 208.819095,87.634841 206.637074,34.1753215 C206.548706,32.0103005 204.003015,29.8282793 199,27.6292579 L199,6.90005646 C238.696939,1.25810378 267.426885,-0.923917428 285.189838,0.353992852 C297.612079,1.2476793 312.018598,4.36213391 328.409394,9.69735669 C333.107339,11.2265431 340.521032,12.1124607 350.650474,12.3551095 L351.336909,12.3375684 C361.115498,12.0718595 368.30038,11.1917889 372.891553,9.69735669 C389.282349,4.36213391 403.688868,1.2476793 416.11111,0.353992852 C433.874063,-0.923917428 462.604008,1.25810378 502.300947,6.90005646 L502.300947,6.90005646 L502.300947,27.6292579 C497.297933,29.8282793 494.752241,32.0103005 494.663873,34.1753215 C492.481852,87.634841 474.639862,104 434.65829,104 C396.15235,104 377.860184,83.0959855 361.56058,39.6303745 C359.378558,33.8116513 355.741856,30.9022897 350.650474,30.9022897 L350.650474,30.9022897 C345.559091,30.9022897 341.922389,33.8116513 339.740368,39.6303745 Z" id="Combined-Shape"/>            <polygon id="Path" points="199 7 4 39 0 48 199 28"/>        </g>    </g>    </g><g id="notion-avatar-hair" transform="scale(-1,1) translate(-1080, 0)">      <!--?xml version="1.0" encoding="UTF-8"?-->    <title>Hairstyle/ 6</title>    <g id="Hairstyle/-6" stroke="none" stroke-width="1" fill="none" fill-rule="evenodd" stroke-linecap="round" stroke-linejoin="round">        <path d="M279,719 L312,727 L361,805 C345.104968,795.793015 330.104968,783.793015 316,769 C301.895032,754.206985 289.561699,737.540318 279,719 Z M343,303 C367,222.333333 442.666667,202.333333 570,243 C761,304 782,471 782,496 C782,512.666667 778.333333,533.666667 771,559 L769.377742,556.788495 C742.968282,520.931086 720.842368,498.001587 703,488 C652.173973,459.509334 588.817434,464 549,464 C509.182566,464 428.104379,430.95793 412,428 C409.688334,427.575411 401.590927,431.429106 429,448 L430.116018,448.665115 C436.887544,452.645909 447.182205,457.757538 461,464 C447.596463,464.038164 432.312171,461.806007 415.147123,457.303529 L412.503541,456.598811 C395.711977,452.076418 384.642719,448.384272 379.295767,445.522372 L380.06813,448.7074 C388.26572,482.685415 392.364515,505.362636 392.364515,516.739062 C392.364515,528.232771 383.924355,572.72458 367.044035,650.214489 L366,655 C350.666667,619.666667 338.333333,596 329,584 C315,566 300.202254,555.429256 288,559 L287.245493,559.229979 C278.745889,561.917334 258.53666,571.367129 244,589 C238.749387,595.368958 233.08272,607.368958 227,625 L226.065502,623.594497 C212.50066,603.100798 205.145493,587.902633 204,578 C200.118123,544.441696 214.597053,517.355586 214,510 C210.524124,467.177849 188,403 244,358 L246.2348,356.214 C282.6516,327.271333 314.906667,309.533333 343,303 Z" id="Shape" stroke="#000000" stroke-width="12" fill="#000000"/>    </g>    </g><g id="notion-avatar-accessories" transform="scale(-1,1) translate(-1080, 0)">      <!--?xml version="1.0" encoding="UTF-8"?-->    <title>Accessories/ 0</title>    <g id="Accessories/-0" stroke="none" stroke-width="1" fill="none" fill-rule="evenodd"/>    </g><g id="notion-avatar-details" transform="scale(-1,1) translate(-1080, 0)">      <!--?xml version="1.0" encoding="UTF-8"?-->    <title>Details/ 5</title>    <g id="Details/-5" stroke="none" stroke-width="1" fill="none" fill-rule="evenodd" stroke-linecap="round" stroke-linejoin="round">        <g id="Group" transform="translate(453.000000, 659.000000)" stroke="#000000" stroke-width="12">            <path d="M0,0 C12,6.66666667 24,10 36,10 C48,10 60,6.66666667 72,0" id="Path"/>            <path d="M289,-3.37685435e-12 C299.916502,5.03026124 308.103878,8.02711078 313.562129,8.9905486" id="Path"/>        </g>    </g>    </g><g id="notion-avatar-beard" transform="scale(-1,1) translate(-1080, 0)">      <!--?xml version="1.0" encoding="UTF-8"?-->    <title>Beard/ 0</title>    <g id="Beard/-0" stroke="none" stroke-width="1" fill="none" fill-rule="evenodd"/>    </g>      </g>      </svg>

<svg viewBox="0 0 1080 1080" fill="none" xmlns="http://www.w3.org/2000/svg"><defs><filter id="a" x="-20%" y="-20%" width="140%" height="140%" filterUnits="objectBoundingBox" primitiveUnits="userSpaceOnUse" color-interpolation-filters="linearRGB"><feMorphology operator="dilate" radius="20 20" in="SourceAlpha" result="morphology"/><feFlood flood-color="#fff" flood-opacity="1" result="flood"/><feComposite in="flood" in2="morphology" operator="in" result="composite"/><feMerge result="merge"><feMergeNode in="composite"/><feMergeNode in="SourceGraphic"/></feMerge></filter></defs><g filter="url(#a)" transform="matrix(-1 0 0 1 1080 0)"><g fill="#fff"><path d="M532 379c132.548 0 240 107.452 240 240s-7.452 280-240 280c-129.39 0-199.682-82.914-226.751-180.282C264.226 715.292 232 680.909 232 639c0-39.865 29.159-72.92 67.312-79C325.6 455.98 419.81 379 532 379ZM295.859 624.545l8.282 30.91" stroke="#000" stroke-width="24" fill-rule="evenodd" stroke-linecap="round" stroke-linejoin="round"/></g><path d="M631 694.38c29.333-6.92 47-17.047 53-30.38 9-20-46.967-57.607-23.839-85" stroke="#000" stroke-width="16" fill-rule="evenodd" stroke-linecap="round" stroke-linejoin="round"/><path d="M572 769c13.776 5.333 27.11 8 40 8s26.224-2.667 40-8" stroke="#000" stroke-width="16" fill-rule="evenodd" stroke-linecap="round" stroke-linejoin="round"/><path d="M570 516c8.837 0 16 10.745 16 24s-7.163 24-16 24-16-10.745-16-24 7.163-24 16-24Zm138 0c8.837 0 16 10.745 16 24s-7.163 24-16 24-16-10.745-16-24 7.163-24 16-24Z" fill="#000" fill-rule="evenodd"/><g stroke="#000" stroke-width="16" fill-rule="evenodd" stroke-linecap="round" stroke-linejoin="round"><path d="M594 500c-4.805-6.667-12.805-10-24-10s-24.528 3.333-40 10M684 500c4.805-6.667 12.805-10 24-10s24.528 3.333 40 10"/></g><g fill="#000" stroke="#000" stroke-width="4" fill-rule="evenodd" stroke-linecap="round" stroke-linejoin="round"><path d="M628.74 541.63C612.44 585.096 594.15 606 555.643 606c-39.982 0-57.824-16.365-60.006-69.825-.088-2.165-2.634-4.347-7.637-6.546V508.9c39.697-5.642 68.427-7.824 86.19-6.546 12.422.894 26.829 4.008 43.22 9.343 4.697 1.53 12.111 2.415 22.24 2.658l.687-.017c9.778-.266 16.963-1.146 21.555-2.64 16.39-5.336 30.797-8.45 43.22-9.344 17.762-1.278 46.492.904 86.189 6.546h0v20.73c-5.003 2.198-7.549 4.38-7.637 6.545C781.482 589.635 763.64 606 723.658 606c-38.506 0-56.798-20.904-73.097-64.37-2.182-5.818-5.82-8.728-10.91-8.728h0c-5.092 0-8.729 2.91-10.91 8.728ZM488 509l-195 32-4 9 199-20z"/></g><g><path d="m279 719 33 8 49 78c-15.895-9.207-30.895-21.207-45-36s-26.438-31.46-37-50Zm64-416c24-80.667 99.667-100.667 227-60 191 61 212 228 212 253 0 16.667-3.667 37.667-11 63l-1.622-2.212C742.968 520.931 720.842 498.002 703 488c-50.826-28.49-114.183-24-154-24-39.817 0-120.896-33.042-137-36-2.312-.425-10.41 3.43 17 20l1.116.665c6.772 3.98 17.066 9.093 30.884 15.335-13.404.038-28.688-2.194-45.853-6.696l-2.643-.705c-16.792-4.523-27.861-8.215-33.208-11.077l.772 3.185c8.198 33.978 12.297 56.656 12.297 68.032 0 11.494-8.44 55.986-25.321 133.475L366 655c-15.333-35.333-27.667-59-37-71-14-18-28.798-28.57-41-25l-.755.23c-8.5 2.687-28.708 12.137-43.245 29.77-5.25 6.369-10.917 18.369-17 36l-.934-1.406C212.5 603.101 205.146 587.903 204 578c-3.882-33.558 10.597-60.644 10-68-3.476-42.822-26-107 30-152l2.235-1.786C282.652 327.271 314.907 309.534 343 303Z" stroke="#000" stroke-width="12" fill="#000" fill-rule="evenodd" stroke-linecap="round" stroke-linejoin="round"/></g><g/><g><g stroke="#000" stroke-width="12" fill-rule="evenodd" stroke-linecap="round" stroke-linejoin="round"><path d="M453 659c12 6.667 24 10 36 10s24-3.333 36-10M742 659c10.917 5.03 19.104 8.027 24.562 8.99"/></g></g><g/></g></svg>
